public/logos/puma.svg

<svg width="404" height="200" viewBox="0 0 404 200" fill="none" xmlns="http://www.w3.org/2000/svg">
<path d="M217.582 1.31325C216.268 1.50087 214.954 6.1913 212.325 8.81794C210.448 10.6941 208.195 10.6941 206.881 12.7579C206.318 13.5084 206.693 15.0093 206.13 16.3226C205.004 19.1369 201.437 19.5121 201.437 22.3264C201.437 25.5159 204.628 26.2663 207.257 28.5178C209.322 30.3939 209.697 31.7072 211.95 32.4577C214.015 33.2082 217.206 30.9568 220.022 31.7072C222.463 32.4577 224.716 33.0206 225.279 35.272C225.842 37.5234 225.279 40.9005 222.463 40.5253C221.336 40.5253 217.206 39.0243 212.325 39.3996C205.942 40.15 198.996 42.0262 198.433 48.968C198.245 52.908 202.939 57.2232 207.257 56.4727C210.448 55.9099 208.758 51.9699 210.636 50.2814C213.076 48.0299 225.842 58.3489 237.857 58.3489C242.926 58.3489 246.68 57.0356 250.435 53.0956C250.623 52.908 251.186 51.9699 251.749 51.9699C252.312 51.9699 253.063 52.5328 253.251 52.7204C263.013 60.4127 270.335 75.7973 305.628 75.9849C310.697 75.9849 316.329 78.2363 321.022 82.5515C325.152 86.4915 327.593 92.3076 329.846 98.3114C333.6 107.317 339.796 116.135 349.558 125.703C350.121 126.266 358.006 132.458 358.757 132.645C358.757 132.645 359.507 134.146 359.32 134.897C359.132 140.9 358.193 157.786 371.147 158.537C374.338 158.724 373.587 156.473 373.587 154.972C373.587 152.158 373.024 148.968 374.714 146.154C376.779 142.026 370.208 140.15 370.208 131.144C370.396 124.39 364.764 125.516 361.76 120.45C360.258 117.636 358.569 115.76 358.569 112.195C359.132 91.7448 354.063 78.2363 351.81 75.0468C349.933 72.4202 348.056 71.6697 349.933 70.3564C360.634 63.4146 363.074 56.848 363.074 56.848C368.894 43.7147 373.775 31.5196 380.909 26.2663C382.223 25.1406 385.978 22.3264 388.231 21.3883C394.801 18.1988 398.18 16.5103 400.058 14.6341C402.874 11.8198 405.502 5.62845 402.686 1.8761C398.931 -2.81433 392.924 0.7504 390.108 2.62657C370.396 14.2588 367.58 34.5215 360.822 46.1538C355.377 55.5346 346.742 62.4765 338.857 63.0393C332.849 63.6022 326.467 62.2889 320.271 59.4746C304.877 52.7204 296.429 44.2776 294.364 42.589C290.234 39.3996 258.132 8.06747 232.037 6.75415C232.037 6.75415 228.846 0.187549 228.095 0.187549C226.217 -6.85907e-05 224.152 4.12751 222.838 4.69036C221.149 6.00368 218.896 0.938018 217.582 1.31325ZM103.065 187.805C100.625 187.805 98.7472 185.741 98.5595 183.302V102.627H71.526V191.557C71.526 196.06 75.2807 199.625 79.4108 199.625H126.156C130.662 199.625 134.041 196.06 134.041 191.557V102.814H107.571V183.49C107.383 185.929 105.506 187.805 103.065 187.805ZM192.801 102.814H152.063C147.37 102.814 143.428 106.754 143.428 111.445V199.625H170.086V118.949C170.086 116.323 172.151 114.446 174.591 114.446C177.219 114.446 179.097 116.323 179.097 118.949V199.812H205.755V118.574C205.755 116.323 207.82 114.071 210.26 114.071C212.701 114.071 214.766 116.135 214.766 118.574V199.437H241.424V111.257C241.424 106.379 237.481 102.627 232.788 102.627H192.801V102.814ZM53.6915 175.234H26.658V199.625H0V102.814H54.0669C58.7602 102.814 62.7026 106.754 62.7026 111.632V166.604C62.7026 171.482 58.7602 175.234 53.6915 175.234ZM35.8569 118.949C35.8569 116.323 33.7918 114.259 31.3513 114.259H26.8457V163.227H31.3513C33.7918 163.227 35.8569 161.351 35.8569 158.537V118.949ZM284.415 200V175.797H275.216V200H248.37V112.195C248.37 107.317 252.312 103.752 257.006 103.752H302.249C306.942 103.752 310.885 107.692 310.885 112.195V200H284.415ZM284.415 163.977V119.7C284.415 117.448 282.349 115.385 279.909 115.385C277.468 115.385 275.403 117.448 275.403 119.7V164.165L284.415 163.977Z" fill="white"/>
<path d="M335.29 198.874C327.969 198.874 322.149 193.058 322.149 185.741C322.149 178.424 327.969 172.608 335.29 172.608C342.612 172.608 348.431 178.424 348.431 185.741C348.431 193.058 342.612 198.874 335.29 198.874ZM335.29 174.672C329.095 174.672 324.214 179.737 324.214 185.741C324.214 191.745 329.283 196.81 335.29 196.81C341.298 196.81 346.366 191.745 346.366 185.741C346.366 179.737 341.485 174.672 335.29 174.672Z" fill="white"/>
<path d="M331.348 180.3H335.666C336.604 180.3 337.355 180.488 337.918 181.051C338.669 181.613 339.045 182.364 339.045 183.49C339.045 184.991 338.294 186.116 336.98 186.679L339.608 191.745H337.543L335.29 186.867H333.225V191.745H331.535V180.3H331.348ZM333.037 185.366H335.666C336.229 185.366 336.792 185.178 337.167 184.803C337.543 184.428 337.731 184.053 337.731 183.49C337.731 182.927 337.543 182.364 337.167 182.176C336.792 181.989 336.416 181.801 335.853 181.801H333.225V185.366H333.037Z" fill="white"/>
</svg>

<svg xmlns="http://www.w3.org/2000/svg" width="404" height="200" fill="none"><path fill="#fff" d="M217.582 1.313c-1.314.188-2.628 4.878-5.257 7.505-1.877 1.876-4.13 1.876-5.444 3.94-.563.75-.188 2.251-.751 3.565-1.126 2.814-4.693 3.19-4.693 6.003 0 3.19 3.191 3.94 5.82 6.192 2.065 1.876 2.44 3.19 4.693 3.94 2.065.75 5.256-1.501 8.072-.75 2.441.75 4.694 1.313 5.257 3.564s0 5.629-2.816 5.253c-1.127 0-5.257-1.5-10.138-1.125-6.383.75-13.329 2.626-13.892 9.568-.188 3.94 4.506 8.255 8.824 7.505 3.191-.563 1.501-4.503 3.379-6.192 2.44-2.251 15.206 8.068 27.221 8.068 5.069 0 8.823-1.313 12.578-5.253.188-.188.751-1.126 1.314-1.126s1.314.563 1.502.75c9.762 7.693 17.084 23.077 52.377 23.265 5.069 0 10.701 2.251 15.394 6.567 4.13 3.94 6.571 9.756 8.824 15.76 3.754 9.005 9.95 17.823 19.712 27.391.563.563 8.448 6.755 9.199 6.942 0 0 .75 1.501.563 2.252-.188 6.003-1.127 22.889 11.827 23.64 3.191.187 2.44-2.064 2.44-3.565 0-2.814-.563-6.004 1.127-8.818 2.065-4.128-4.506-6.004-4.506-15.01.188-6.754-5.444-5.628-8.448-10.694-1.502-2.814-3.191-4.69-3.191-8.255.563-20.45-4.506-33.959-6.759-37.148-1.877-2.627-3.754-3.377-1.877-4.69 10.701-6.942 13.141-13.509 13.141-13.509 5.82-13.133 10.701-25.328 17.835-30.582 1.314-1.125 5.069-3.94 7.322-4.878 6.57-3.19 9.949-4.878 11.827-6.754 2.816-2.814 5.444-9.006 2.628-12.758-3.755-4.69-9.762-1.126-12.578.75-19.712 11.633-22.528 31.896-29.286 43.528-5.445 9.38-14.08 16.322-21.965 16.885-6.008.563-12.39-.75-18.586-3.564-15.394-6.755-23.842-15.197-25.907-16.886-4.13-3.19-36.232-34.522-62.327-35.835 0 0-3.191-6.566-3.942-6.566-1.878-.188-3.943 3.94-5.257 4.502-1.689 1.314-3.942-3.752-5.256-3.377M103.065 187.805c-2.44 0-4.318-2.064-4.505-4.503v-80.675H71.526v88.93c0 4.503 3.755 8.068 7.885 8.068h46.745c4.506 0 7.885-3.565 7.885-8.068v-88.743h-26.47v80.676c-.188 2.439-2.065 4.315-4.506 4.315m89.736-84.991h-40.738c-4.693 0-8.635 3.94-8.635 8.631v88.18h26.658v-80.676c0-2.626 2.065-4.503 4.505-4.503 2.628 0 4.506 1.877 4.506 4.503v80.863h26.658v-81.238c0-2.251 2.065-4.503 4.505-4.503s4.506 2.064 4.506 4.503v80.863h26.658v-88.18c0-4.878-3.943-8.63-8.636-8.63h-39.987zm-139.11 72.42H26.658v24.391H0v-96.811h54.067c4.693 0 8.636 3.94 8.636 8.818v54.972c0 4.878-3.943 8.63-9.012 8.63m-17.834-56.285c0-2.626-2.065-4.69-4.506-4.69h-4.505v48.968h4.505c2.44 0 4.506-1.876 4.506-4.69zM284.415 200v-24.203h-9.199V200H248.37v-87.805c0-4.878 3.942-8.443 8.636-8.443h45.243c4.693 0 8.636 3.94 8.636 8.443V200zm0-36.023V119.7c0-2.252-2.066-4.315-4.506-4.315s-4.506 2.063-4.506 4.315v44.465zM335.29 198.874c-7.321 0-13.141-5.816-13.141-13.133s5.82-13.133 13.141-13.133c7.322 0 13.141 5.816 13.141 13.133s-5.819 13.133-13.141 13.133m0-24.202c-6.195 0-11.076 5.065-11.076 11.069s5.069 11.069 11.076 11.069 11.076-5.065 11.076-11.069-4.881-11.069-11.076-11.069"/><path fill="#fff" d="M331.348 180.3h4.318c.938 0 1.689.188 2.252.751.751.562 1.127 1.313 1.127 2.439 0 1.501-.751 2.626-2.065 3.189l2.628 5.066h-2.065l-2.253-4.878h-2.065v4.878h-1.69V180.3zm1.689 5.066h2.629c.563 0 1.126-.188 1.501-.563.376-.375.564-.75.564-1.313s-.188-1.126-.564-1.314c-.375-.187-.751-.375-1.314-.375h-2.628v3.565z"/></svg>
